public/svg/layouts/layouts.svg

<svg width="62" height="62" viewBox="0 0 62 62" fill="none" xmlns="http://www.w3.org/2000/svg">
<circle cx="31" cy="31" r="25" fill="white"/>
<circle opacity="0.2" cx="31" cy="31" r="31" fill="white"/>
<path d="M20.7037 28.1833V24.6073H22.7951C23.7633 24.6073 24.5379 24.3491 25.093 23.8456C25.661 23.3421 25.945 22.6837 25.945 21.8704C25.945 21.0571 25.661 20.4116 25.093 19.9082C24.5379 19.4047 23.7633 19.1465 22.7951 19.1465H18.8447V28.1833H20.7037ZM20.7037 20.7731H22.666C23.5568 20.7731 24.0861 21.1733 24.0861 21.8962C24.0861 22.6192 23.5568 23.0194 22.666 23.0194H20.7037V20.7731Z" fill="#1B2E50"/>
<path d="M30.7369 28.1833C32.1956 28.1833 33.3962 27.7701 34.3128 26.931C35.2294 26.0919 35.6942 24.9946 35.6942 23.6649C35.6942 22.3352 35.2294 21.2508 34.3128 20.4116C33.3962 19.5725 32.1956 19.1465 30.7369 19.1465H27.3545V28.1833H30.7369ZM29.2135 20.8118H30.5819C32.5958 20.8118 33.7835 21.8704 33.7835 23.6649C33.7835 25.4593 32.5958 26.5179 30.5819 26.5179H29.2135V20.8118Z" fill="#1B2E50"/>
<path d="M39.2362 28.1833V24.2845H42.9154V22.645H39.2362V20.8118H43.9998V19.1465H37.3772V28.1833H39.2362Z" fill="#1B2E50"/>
<path d="M31 32V44M31 44L36 39.0588M31 44L26 39.0588" stroke="#1B2E50" stroke-width="1.5"/>
<path d="M26 47L36 47" stroke="#1B2E50" stroke-width="1.5"/>
</svg>

<svg width="62" height="62" fill="none" xmlns="http://www.w3.org/2000/svg"><circle cx="31" cy="31" r="25" fill="#fff"/><circle opacity=".2" cx="31" cy="31" r="31" fill="#fff"/><path d="M20.704 28.183v-3.576h2.091c.968 0 1.743-.258 2.298-.761.568-.504.852-1.162.852-1.976 0-.813-.284-1.458-.852-1.962-.555-.503-1.33-.762-2.298-.762h-3.95v9.037h1.859zm0-7.41h1.962c.89 0 1.42.4 1.42 1.123s-.53 1.123-1.42 1.123h-1.962v-2.246zm10.033 7.41c1.459 0 2.66-.413 3.576-1.252.916-.84 1.381-1.936 1.381-3.266s-.465-2.414-1.381-3.253c-.917-.84-2.117-1.265-3.576-1.265h-3.382v9.036h3.382zm-1.523-7.371h1.368c2.014 0 3.201 1.058 3.201 2.853 0 1.794-1.187 2.853-3.201 2.853h-1.369v-5.706zm10.022 7.371v-3.898h3.68v-1.64h-3.68v-1.833H44v-1.666h-6.623v9.037h1.86z" fill="#1B2E50"/><path d="M31 32v12m0 0l5-4.941M31 44l-5-4.941M26 47h10" stroke="#1B2E50" stroke-width="1.5"/></svg>
